X: 24984
T: Maid Of Mount Kisco, The
R: reel
M: 4/4
K: Bdorian
|:FB B2 cABA|FB B2 cABA|FA A2 BA A2|FA A2 FAEA|
FB B2 cABA|FB B2 cBce|faaf bfaf|1 ecAc B3 A:|2 ecAc B2 ec||
|:B3 c ecBc|A2 cA EAcA|B3 c e2 ce|1 f a3 afec:|2 faaf e2 ce||
|:fb b2 c'aba|faec ABce|fb b2 c'aba|faef a2 fa|
b3 f a3 f|efec ABce|fB B2 faaf|1 ecAc B2 ce:|2 ecAB cB B2||

